X:1
L:1/8
M:3/4
K:Amin
|:""Am"" ef ed Bc |""F"" A2 AABc |""Dm"" df ff ed |""C"" e2 ee""Em"" ed |""F"" ef ed Bc |""Am"" A2 AA Bc | 
""F"" FA cF Ac |""G"" B2 BB cB |""Dm"" AF DF AF |""C"" G2 GE CE |""F"" AF CF AF |""G"" G2 G2 AB | 
""Am"" c2 cd""G""de |""^F7+"" e2 ed cd |""G"" dd dc AG |""Am"" A2 A4 ::""Am"" A2 AE AB |""C"" c2 cB ce | 
""Dm"" d2 deed |""G"" G4 G2 |""Am"" A2 AE AB |""C"" c2 cB ce |""Dm"" d2 deed |""G"" GA cd ed |""Dm"" af dA FD | 
""C"" ge cG EC |""F"" fc AF CA, |""G"" B,D GB dB |""Am"" c2 cd""G""de |""^F7+"" e2 ed cd |""G"" dd dc AG | 
""Am"" A2 A4 :|
